icons/cloud-windy-line.svg

<svg viewBox="0 0 24 24" fill="currentColor" xmlns="http://www.w3.org/2000/svg">
    <path d="M14 18V16H17.5C19.433 16 21 14.433 21 12.5C21 10.567 19.433 9 17.5 9C16.5205 9 15.6351 9.40232 14.9998 10.0507C14.9999 10.0338 15 10.0169 15 10C15 6.68629 12.3137 4 9 4C5.68629 4 3 6.68629 3 10V10.0069H1V10C1 5.58172 4.58172 2 9 2C12.3949 2 15.2959 4.11466 16.4576 7.09864C16.7951 7.0339 17.1436 7 17.5 7C20.5376 7 23 9.46243 23 12.5C23 15.5376 20.5376 18 17.5 18H14ZM6 20H16V22H6V20ZM6 12H14V14H6V12ZM2 16H12V18H2V16Z"/>
</svg>

<svg xmlns="http://www.w3.org/2000/svg" viewBox="0 0 24 24">
    <g>
        <path fill="none" d="M0 0h24v24H0z"/>
        <path d="M14 18v-2h3.5a3.5 3.5 0 1 0-2.5-5.95V10a6 6 0 1 0-12 0v.007H1V10a8 8 0 0 1 15.458-2.901A5.5 5.5 0 1 1 17.5 18H14zm-8 2h10v2H6v-2zm0-8h8v2H6v-2zm-4 4h10v2H2v-2z"/>
    </g>
</svg>
